X:065 
T:Glountane Reel, The 
F:file ID: cre.5/065gloun
B:CRE5.122 (Ril an GhleanntÃÂÃÂÃÂÃÂ¡in)
M:4/4
Q:180
R:reel
K:D
D2FA d2AF|GFEF GFEF|D2FA dfed|(3Bcd eg fdd2:|
f4 fedc|(3Bcd AddAd|fded fded|ABde fdd2|
fdeg fded|BdAd (3Bcd AB|d2ef gfge|a2ag fdd2|]

%%%

